X:576
T:Miss Nisbet of Dirleton
R:Reel
C:Nathaniel Gow
B:The Athole Collection
M:C|
L:1/8
K:A Minor
e|AAec BGGB|AAeA cde^f|gdec BGGB|AAeB cAA:|
^g|aee=g BGG^g|aee^f =gbaf|gdec BGGB|AAeB cAA^g|
aee=g BGG^g|aee^f =gbaf|gdec GdGB|AaeB cAA||

